X:1
T:Title
%%score [ 1 2 ]
L:1/8
Q:1/4=120
M:2/2
K:C
V:1 treble-8 nm="Tenor" snm="T"
V:2 bass nm="Bass" snm="B"
V:1
"^Editor: André Vierendeels (15/08/00)""^Source: Compendium Musices---Montanus et Neuberus (Nürnberg 1552)." A2 c4"^SALVE SANCTA PARENS" BA | %1
"^BICINIUM super" B2 A2 GABG | BcdB defd |"^Adrien Petit Coclico" fg a4 g2 | fedc B2 c2- | %5
 c2 A4 f2- | f2 ed edcB | A2 a3 gfe | d2 f4 e2 | d3 c/B/ A2 a2- | agfe d2 e2 | %11
[M:3/2] A3 B c2 d3 e f2 | c3 B cd e3 f g2 | a3 g f2 e3 d c2 | B3 A Bc d3 f3 |[M:2/2] edcB A2 d2- | %16
 d2 f4 d2- | defg a2 f2- | f2 ed c2 A2- | A2 d3 c BA | G2 g2 f4 |[M:3/2] g2 e2 g2 f2 a2 f2 | %22
 d3 e fg a2 f2 d2 | f3 e dc B3 A B2 | c3 d e2 f2 d2 f2 | e3 d cB A3 B c2 |[M:3/4] d2 A2 B2 | %27
 A2 c2- z2 |[M:2/2] c2 B2 A2 a2- | agfe dc B2- | B2 d4 A2- | A2 a3 g fe | d2 e2 A2 f2- | %33
 f2 e4 d2- | d2 cB ABcd | efge fedc | BA G2 g2 ^fe | ^f16 |] %38
V:2
 A,,4 C,4 | D,4 E,4 | D,4 D,4 | D,4 C,4 | D,4 E,4 | F,4 D,4 | D,4 C,4 | D,4 F,4- | F,4 G,4 | %9
w: Sal- *||ve san-|cta _|pa- *||rens e-|* ni-||
 F,4 F,4 | F,4 G,4 | F,4 F,4 x4 | F,4 E,4 x4 | D,4 E,4 x4 | E,4 D,4 x4 | C,4 D,4 | F,4 F,4 | %17
w: xa pu-|er- *|pe- ra|Re- *|||* coel-|lum ter-|
 F,4 D,4- | D,4 F,4 | F,4 D,4 | E,4 D,4 | C,4 D,4 x4 | F,4 D,4- x4 | D,4 E,4 x4 | C,4 D,4 x4 | %25
w: ram- *||que _|_ re-|||||
 C,4 D,4 x4 |[M:2/4] D,4 x2 | C,4 z2 |[M:2/2] D,4 F,4- | F,4 G,4 | D,8 | D,4 F,4 | G,4 F,4 | %33
w: |git|_||||||
 G,4 F,4 | E,4 F,4 | E,4 D,4 | E,4 E,4 | D,16 |] %38
w: |||||

